X: 140044
Q: "Irish Jig."
M: 6/8
L: 1/8
K: D
uA, |\
ua |\
va2vf uf2ud | A2a agf | g2e e2c | A2g gfe |
f2d g2e | a2f bag | fed edc | d3 d2 ua |\
agf fed | Adf afd | gfe ecA | Ace gfe |\
fed gfe | agf bag | fed edc | d3 d2 |]


